src/main/resources/icons/AllIcons/scope/production.svg

<!-- Copyright 2000-2021 JetBrains s.r.o. Use of this source code is governed by the Apache 2.0 license that can be found in the LICENSE file. -->
<svg xmlns="http://www.w3.org/2000/svg" width="16" height="16" viewBox="0 0 16 16">
  <g fill="none" fill-rule="evenodd">
    <path fill="#40B6E0" fill-opacity=".7" d="M13.6211,10.7236 L14.7591,11.5396 C14.5401,12.2166 14.1811,12.8296 13.7151,13.3466 L12.4401,12.7716 C12.0771,13.0906 11.6511,13.3406 11.1831,13.4986 L11.0441,14.8906 C10.7071,14.9616 10.3581,14.9996 10.0001,14.9996 C9.6421,14.9996 9.2931,14.9616 8.9561,14.8906 L8.8171,13.4986 C8.3491,13.3406 7.9231,13.0906 7.5591,12.7716 L6.2851,13.3466 C5.8191,12.8296 5.4601,12.2166 5.2411,11.5396 L6.3791,10.7236 C6.3321,10.4896 6.3081,10.2476 6.3081,9.9996 C6.3081,9.7516 6.3321,9.5106 6.3791,9.2766 L5.2411,8.4596 C5.4601,7.7836 5.8191,7.1696 6.2851,6.6536 L7.5591,7.2286 C7.9231,6.9096 8.3491,6.6596 8.8171,6.5006 L8.9561,5.1096 C9.2931,5.0376 9.6421,4.9996 10.0001,4.9996 C10.3581,4.9996 10.7071,5.0376 11.0441,5.1096 L11.1831,6.5006 C11.6511,6.6596 12.0771,6.9096 12.4401,7.2286 L13.7151,6.6536 C14.1811,7.1696 14.5401,7.7836 14.7591,8.4596 L13.6211,9.2766 C13.6681,9.5106 13.6921,9.7516 13.6921,9.9996 C13.6921,10.2476 13.6681,10.4896 13.6211,10.7236 M10.0001,11.7696 C10.9771,11.7696 11.7691,10.9776 11.7691,9.9996 C11.7691,9.0226 10.9771,8.2306 10.0001,8.2306 C9.0221,8.2306 8.2301,9.0226 8.2301,9.9996 C8.2301,10.9776 9.0221,11.7696 10.0001,11.7696"/>
    <path fill="#9AA7B0" fill-opacity=".8" d="M4.04385207,9.27089379 C3.7819123,9.13330039 3.53852709,8.96516444 3.31842981,8.77121928 L2.04338462,9.34641993 C1.57807723,8.8301821 1.21883738,8.21646796 1,7.53961242 L2.13707934,6.72378934 C2.09056155,6.4897381 2.06616703,6.24771796 2.06616703,6.00000018 C2.06616703,5.75228229 2.09056157,5.51026205 2.1370794,5.27621071 L1,4.46038758 C1.21883738,3.78353204 1.57807723,3.1698179 2.04338462,2.65358007 L3.31843009,3.22878084 C3.68132845,2.90900239 4.10753668,2.65938808 4.57583797,2.50115472 L4.71476332,1.10909555 C5.05139171,1.03761066 5.40054098,1 5.75847469,1 C6.1164084,1 6.46555766,1.03761066 6.80218606,1.10909555 L6.9411114,2.50115459 C7.40941278,2.65938793 7.8356211,2.90900225 8.19851953,3.22878073 L9.47356476,2.65358007 C9.83330481,3.05269563 10.1296462,3.51007473 10.3467223,4.00985079 C10.2319815,4.00331333 10.1163777,4 10,4 C8.92348295,4 7.9131829,4.28350868 7.03969091,4.77993498 C6.71743548,4.44161446 6.26257566,4.23076908 5.75847451,4.23076908 C4.78135535,4.23076908 3.98924377,5.02294884 3.98924377,6.0001521 C3.98924377,6.5414389 4.23228024,7.02595662 4.61517431,7.3505175 C4.32349695,7.94219906 4.12646772,8.58891296 4.04385207,9.27089379 Z"/>
  </g>
</svg>

<svg xmlns="http://www.w3.org/2000/svg" width="16" height="16" viewBox="0 0 16 16"><rect id="frame" width="16" height="16" fill="none"/><g fill="none" fill-rule="evenodd"><path fill="#40B6E0" fill-opacity=".7" d="M13.621 10.724l1.138.816a4.994 4.994 0 0 1-1.044 1.807l-1.275-.575a3.698 3.698 0 0 1-1.257.727l-.139 1.392a5.058 5.058 0 0 1-2.088 0l-.139-1.392a3.712 3.712 0 0 1-1.258-.727l-1.274.575a4.994 4.994 0 0 1-1.044-1.807l1.138-.816a3.673 3.673 0 0 1 0-1.447L5.241 8.46a4.99 4.99 0 0 1 1.044-1.806l1.274.575A3.73 3.73 0 0 1 8.817 6.5l.14-1.391a4.99 4.99 0 0 1 2.087 0l.14 1.39c.467.16.893.41 1.256.729l1.275-.575A4.99 4.99 0 0 1 14.76 8.46l-1.138.817a3.663 3.663 0 0 1 0 1.447m-3.62 1.046A1.77 1.77 0 1 0 10 8.23a1.77 1.77 0 0 0 0 3.539"/><path fill="#9AA7B0" fill-opacity=".8" d="M4.044 9.27a3.7 3.7 0 0 1-.726-.499l-1.275.575A4.995 4.995 0 0 1 1 7.54l1.137-.816a3.71 3.71 0 0 1 0-1.448L1 4.46a4.995 4.995 0 0 1 1.043-1.806l1.275.575c.363-.32.79-.57 1.258-.728l.139-1.392a5.02 5.02 0 0 1 2.087 0l.14 1.392c.467.158.894.408 1.257.728l1.275-.575c.36.399.656.856.873 1.356a5.973 5.973 0 0 0-3.307.77 1.77 1.77 0 1 0-2.425 2.57 5.96 5.96 0 0 0-.571 1.92z"/></g></svg>
